X:471
T:The Fairy Queen
R:Hornpipe
B:The Irish Fiddle Book p110
B:Ceol Rince 3 n230
S:Richard Darsie's web page
Z:Transcription, chords:Mike Long
M:C|
L:1/8
K:D
A2|\
"D"d2 "(A)"ec "D"d2 AG|"D"FDFA dAFA|"G"G2 BG "Em"E2 ef|"A"gece dcBA|\
"D"d2 "(A)"ec "D"d2 AG|"D"FDFA dAFA|
"G"G2 BG "Em"E2 ef|"A"gece "D"d2:|\
|:A2|\
"D"df ~f2 "A"gece|"D"da^ga ba^ga|"D"fdAF "G"G2 ef|
"A"ge ~e2 ge ~e2|"D"df ~f2 "A"gfga|"G"ba^ga "A"ba^ga|\
"D"fdAF "G"G2 ef|"A"gece "D"d2:|
